static/images/arrow-left-circle.svg

<svg xmlns="http://www.w3.org/2000/svg" viewBox="0 0 24 24"><path d="M2 12A10 10 0 0 1 12 2a10 10 0 0 1 10 10 10 10 0 0 1-10 10A10 10 0 0 1 2 12m16-1h-8l3.5-3.5-1.42-1.42L6.16 12l5.92 5.92 1.42-1.42L10 13h8v-2Z"/></svg>

<svg xmlns="http://www.w3.org/2000/svg" viewBox="0 0 24 24"><path d="M2,12A10,10 0 0,1 12,2A10,10 0 0,1 22,12A10,10 0 0,1 12,22A10,10 0 0,1 2,12M18,11H10L13.5,7.5L12.08,6.08L6.16,12L12.08,17.92L13.5,16.5L10,13H18V11Z" /></svg>
